icons/editor/bold.svg

<svg width="32" height="32" viewBox="0 0 32 32" fill="none" xmlns="http://www.w3.org/2000/svg">
<path fill-rule="evenodd" clip-rule="evenodd" d="M18 9H12V14.5H18C19.5188 14.5 20.75 13.2688 20.75 11.75C20.75 10.2312 19.5188 9 18 9ZM18 6C21.1756 6 23.75 8.57436 23.75 11.75C23.75 13.2605 23.1676 14.6349 22.2151 15.661C23.6031 16.7107 24.5 18.3756 24.5 20.25C24.5 23.4256 21.9256 26 18.75 26H11C9.89543 26 9 25.1046 9 24V8C9 6.89543 9.89543 6 11 6H18ZM18 17.5H12V23H18.75C20.2688 23 21.5 21.7688 21.5 20.25C21.5 18.7312 20.2688 17.5 18.75 17.5H18Z" fill="black"/>
</svg>

<svg viewBox="0 0 32 32" xmlns="http://www.w3.org/2000/svg"><path fill-rule="evenodd" d="M18 9h-6v5.5h6A2.75 2.75 0 1018 9zm0-3a5.75 5.75 0 014.215 9.661A5.75 5.75 0 0118.75 26H11a2 2 0 01-2-2V8a2 2 0 012-2h7zm0 11.5h-6V23h6.75a2.75 2.75 0 100-5.5H18z"/></svg>
